X: 1021
T: Almost, The
R: reel
M: 4/4
K: Bminor
B2>d2 cA B2|DddA dAFA|B2>d2 cA B2|DddA BF F2|
B2>d2 cA B2|DddA dAFA|B2>d2 cA B2|DddA BA A2|
B2>d2 eB d2|BddA dAFA|EBeB dc B2|DddA BFF2|
B2>d2 eB d2|BddA dAFA|EBeB dc B2|Ddd f2 dcB||

